X:10
T:T. J.'s
C:Dave Jolly
M:6/8
R:jig
K:F
A|d2f e2d|A3-A2B|c3 d3|e2f gfe|d2f e2d|A3-A2B|A2G F2E|D3-D2:|
E|F2D DEF|G2E EFG|A2c FAc|^c2A-A2G|F2D DEF|G2E EFG|A2G F2E|D3-D2E|
F2D DEF|G2E EFG|A3 =B3|^c3 A3|d2f e2d|A3-A2B|A2G F2E|D3-D2|]

